!!!COM:	Bach, Johann Sebastian
!!!OMV:	Du Friedef&uuml;rst, Herr Jesu Christ
!!!OTL:	Du Friedef&uuml;rst, Herr Jesu Christ
**kern	**fb	**kern	**kern	**kern	**kern
*part5	*part5	*part4	*part3	*part2	*part1
*staff5	*	*staff4	*staff3	*staff2	*staff1
*I"Continuo	*	*I"Voice	*I"Voice	*I"Voice	*I"Voice
*I'Cont.	*	*I'V	*I'V	*I'V	*I'V
*clefF4	*	*clefF4	*clefGv2	*clefG2	*clefG2
*Trd0c0	*	*	*	*	*
*k[f#c#g#]	*	*k[f#c#g#]	*k[f#c#g#]	*k[f#c#g#]	*k[f#c#g#]
*M4/4	*	*M4/4	*M4/4	*M4/4	*M4/4
4AA	.	4A	4e	4a	4cc#
=2	=2	=2	=2	=2	=2
8DL	.	8dL	4d	4f#	4a
8C#J	.	8c#J	.	.	.
4BB	6	4B	4d	4g#	4b
4AA	.	4A	4e	4a	4cc#
4GG#	6	4G#	4e	4b	4ee
=3	=3	=3	=3	=3	=3
4FF#	6	4F#	4f#	4a	4dd
4GG#	6 5	4G#	4e	4b	4dd
4AA;	.	4A;	4e;	4a;	4cc#;
4C#	6	4C#	4e	4a	4ee
=4	=4	=4	=4	=4	=4
8F#L	6	8F#L	4f#	4a	4dd
8G#J	6 5	8G#J	.	.	.
4A	.	4A	4e	4a	4cc#
4D	6 5	4D	4f#	4a	4b
4E	.	4E	4e	4g#	4b
=	=	=	=	=	=
2.AA;	.	2.AA;	2.e;	2.a;	2.cc#;
=5:|!	=5:|!	=5:|!	=5:|!	=5:|!	=5:|!
8EL	.	8EL	4e	4g#	4b
8F#J	.	8F#J	.	.	.
=6	=6	=6	=6	=6	=6
4G#	6	4G#	4B	4e	4b
4E	.	4E	4e	4g#	4b
4A	.	4A	4e	4a	4cc#
4E	.	4E	8eL	4g#	4b
.	.	.	8dJ	.	.
=7	=7	=7	=7	=7	=7
4F#	.	4F#	4c#	4f#	4a
4BB	7 5	4BB	4d	4g#	4b
4C#;	#	4C#;	4c#;	4e#X;	4g#;
4C#	.	4C#	4c#	4e#	4g#
=8	=8	=8	=8	=8	=8
4F#	.	4F#	4c#	4f#	4a
4E	.	4E	4en	4g#	4b
4A	.	4A	2e	4a	4cc#
4G#	6	4G#	.	4e	8bL
.	.	.	.	.	8cc#J
=9	=9	=9	=9	=9	=9
!!linebreak:original
4F#	6	4F#	4d	4a	4dd
4E	6 4	4E	4e	4a	4cc#
4D	6 5	4D	4f#	4a	2b
4E	.	4E	8eL	4g#	.
.	.	.	8dJ	.	.
=10	=10	=10	=10	=10	=10
2.AA;	.	2.AA;	2.c#;	2.e;	2.a;
=||	=||	=||	=||	=||	=||
*-	*-	*-	*-	*-	*-
!!!system-decoration: s1,s2,s3,s4,s5
